_inc/systems/system/flash.svg

<?xml version="1.0" encoding="UTF-8" standalone="no"?>
<svg
   viewBox="0 0 1078.9 618.7"
   version="1.1"
   id="svg2"
   sodipodi:docname="flash.svg"
   inkscape:version="1.3.2 (091e20e, 2023-11-25, custom)"
   xmlns:inkscape="http://www.inkscape.org/namespaces/inkscape"
   xmlns:sodipodi="http://sodipodi.sourceforge.net/DTD/sodipodi-0.dtd"
   xmlns="http://www.w3.org/2000/svg"
   xmlns:svg="http://www.w3.org/2000/svg">
  <defs
     id="defs2" />
  <sodipodi:namedview
     id="namedview2"
     pagecolor="#505050"
     bordercolor="#eeeeee"
     borderopacity="1"
     inkscape:showpageshadow="0"
     inkscape:pageopacity="0"
     inkscape:pagecheckerboard="0"
     inkscape:deskcolor="#505050"
     inkscape:zoom="0.20800631"
     inkscape:cx="-2612.9015"
     inkscape:cy="-1353.3243"
     inkscape:window-width="3840"
     inkscape:window-height="2126"
     inkscape:window-x="-11"
     inkscape:window-y="-11"
     inkscape:window-maximized="1"
     inkscape:current-layer="svg2" />
  <path
     style="fill:#ffffff;fill-opacity:1;stroke:none;stroke-width:1.5625"
     d="m 257.221,560.401 v -58.292 l 9.991,-1.002 c 48.016,-4.813 70.977,-15.185 101.759,-45.967 35.902,-35.902 59.944,-80.902 99.753,-186.711 26.342,-70.014 48.179,-112.521 82.39,-160.38 C 580.973,66.278 628.292,32.429 681.278,14.937 707.386,6.319 742.898,0 765.22,0 h 8.567 v 58.347 58.347 l -9.991,0.873 c -26.478,2.311 -47.939,8.879 -68.659,21.013 -27.562,16.14 -61.414,57.572 -80.451,98.465 -6.606,14.19 -10.25,13.097 43.65,13.097 h 47.365 v 59.191 59.191 l -72.656,0.384 -72.656,0.384 -7.991,17.663 c -20.485,45.279 -44.381,87.918 -67.793,120.968 -44.988,63.509 -105.049,98.039 -188.901,108.603 -9.361,1.179 -21.85,2.15 -27.752,2.156 l -10.731,0.012 z"
     id="path3820"
     transform="matrix(0.64,0,0,0.64,216.3396,158.64904)" />
  <path
     d="M 60.799,347.309 54.904,332.403 H 25.518 l -5.575,14.906 H 0 l 31.846,-75.924 h 17.803 l 31.525,75.924 z M 40.425,291.653 30.773,317.71 h 19.089 z m 117.945,17.478 c 0,6.651 -1.233,12.388 -3.698,17.211 -2.468,4.827 -5.72,8.796 -9.758,11.908 -4.04,3.109 -8.598,5.396 -13.673,6.861 -5.076,1.465 -10.224,2.198 -15.445,2.198 H 87.487 v -75.924 h 27.455 c 5.36,0 10.649,0.626 15.867,1.878 5.221,1.252 9.868,3.325 13.94,6.22 4.076,2.896 7.366,6.774 9.87,11.636 2.501,4.859 3.751,10.863 3.751,18.012 z m -19.089,0 c 0,-4.289 -0.697,-7.846 -2.092,-10.67 -1.394,-2.824 -3.252,-5.076 -5.575,-6.755 -2.322,-1.679 -4.967,-2.875 -7.933,-3.59 -2.967,-0.715 -6.024,-1.073 -9.171,-1.073 h -9.113 v 44.394 h 8.686 c 3.286,0 6.45,-0.375 9.491,-1.126 3.037,-0.75 5.718,-1.983 8.04,-3.697 2.323,-1.718 4.181,-4.006 5.575,-6.866 1.395,-2.86 2.092,-6.399 2.092,-10.617 z m 110.346,-0.107 c 0,6.007 -1.036,11.495 -3.11,16.464 -2.074,4.969 -4.951,9.223 -8.632,12.762 -3.682,3.536 -8.06,6.269 -13.135,8.2 -5.076,1.931 -10.582,2.897 -16.518,2.897 -5.933,0 -11.419,-0.966 -16.459,-2.897 -5.04,-1.931 -9.4,-4.664 -13.082,-8.2 -3.681,-3.539 -6.558,-7.793 -8.632,-12.762 -2.073,-4.969 -3.11,-10.457 -3.11,-16.464 0,-6.075 1.037,-11.561 3.11,-16.459 2.074,-4.897 4.951,-9.062 8.632,-12.494 3.682,-3.433 8.042,-6.077 13.082,-7.934 5.04,-1.86 10.526,-2.79 16.459,-2.79 5.936,0 11.442,0.93 16.518,2.79 5.075,1.857 9.453,4.501 13.135,7.934 3.681,3.432 6.558,7.597 8.632,12.494 2.074,4.898 3.11,10.384 3.11,16.459 z m -19.622,0 c 0,-3.286 -0.537,-6.359 -1.611,-9.219 -1.071,-2.86 -2.554,-5.309 -4.45,-7.347 -1.896,-2.037 -4.183,-3.647 -6.861,-4.828 -2.682,-1.177 -5.632,-1.766 -8.851,-1.766 -3.215,0 -6.146,0.589 -8.792,1.766 -2.643,1.181 -4.93,2.791 -6.861,4.828 -1.932,2.038 -3.415,4.487 -4.45,7.347 -1.038,2.86 -1.557,5.933 -1.557,9.219 0,3.433 0.537,6.596 1.61,9.491 1.071,2.896 2.554,5.38 4.45,7.454 1.896,2.073 4.165,3.7 6.808,4.881 2.646,1.178 5.577,1.766 8.792,1.766 3.219,0 6.151,-0.588 8.798,-1.766 2.642,-1.181 4.929,-2.808 6.861,-4.881 1.931,-2.074 3.432,-4.558 4.503,-7.454 1.074,-2.895 1.611,-6.058 1.611,-9.491 z m 90.922,16.192 c 0,4.148 -0.821,7.633 -2.465,10.457 -1.646,2.824 -3.827,5.094 -6.541,6.808 -2.717,1.718 -5.809,2.952 -9.277,3.702 -3.468,0.751 -7.025,1.126 -10.67,1.126 h -30.24 v -75.924 h 30.24 c 2.93,0 5.932,0.304 9.005,0.912 3.077,0.608 5.865,1.645 8.366,3.11 2.504,1.466 4.542,3.449 6.114,5.949 1.572,2.504 2.358,5.686 2.358,9.545 0,4.218 -1.144,7.704 -3.431,10.457 -2.287,2.753 -5.289,4.737 -9.006,5.953 v 0.214 c 2.145,0.356 4.164,1.017 6.056,1.985 1.896,0.964 3.541,2.196 4.935,3.697 1.394,1.501 2.502,3.253 3.324,5.255 0.821,2.002 1.232,4.254 1.232,6.754 z m -20.802,-31.845 c 0,-2.575 -0.983,-4.453 -2.95,-5.634 -1.967,-1.177 -4.88,-1.766 -8.739,-1.766 h -9.011 v 15.654 h 9.87 c 3.429,0 6.091,-0.698 7.987,-2.092 1.896,-1.394 2.843,-3.448 2.843,-6.162 z m 2.465,30.133 c 0,-3.148 -1.179,-5.328 -3.537,-6.541 -2.361,-1.217 -5.507,-1.825 -9.438,-1.825 h -10.19 v 17.372 h 10.297 c 1.43,0 2.913,-0.125 4.45,-0.374 1.536,-0.252 2.93,-0.699 4.182,-1.339 1.252,-0.644 2.271,-1.556 3.057,-2.737 0.786,-1.181 1.179,-2.7 1.179,-4.556 z m 30.463,23.805 v -75.924 h 51.042 v 15.552 h -33.35 v 14.261 h 31.525 v 14.692 h -31.525 v 15.761 h 35.281 v 15.658 z"
     style="fill:#ffffff;stroke-width:1.5625"
     id="path1"
     transform="matrix(0.64,0,0,0.64,216.3396,158.64904)" />
  <path
     d="m 770.255,286.984 v 15.695 h 29.464 v 15.161 h -29.464 v 29.571 h -18.172 v -76.127 h 50.108 v 15.7 z m 43.754,60.427 v -76.127 h 18.493 v 60.105 h 29.459 v 16.022 z m 108.17,0 -5.916,-14.946 h -29.46 l -5.59,14.946 h -20.001 l 31.936,-76.127 h 17.845 l 31.615,76.127 z m -20.43,-55.805 -9.677,26.127 h 19.14 z m 87.401,-0.535 c -1.577,-2.008 -3.638,-3.604 -6.184,-4.788 -2.543,-1.184 -4.999,-1.776 -7.366,-1.776 -1.217,0 -2.452,0.109 -3.708,0.326 -1.255,0.214 -2.384,0.626 -3.386,1.236 -1.005,0.61 -1.849,1.398 -2.53,2.365 -0.681,0.966 -1.022,2.204 -1.022,3.712 0,1.288 0.27,2.363 0.808,3.226 0.539,0.859 1.327,1.612 2.365,2.257 1.041,0.646 2.278,1.236 3.712,1.771 1.433,0.539 3.046,1.095 4.836,1.669 2.582,0.859 5.271,1.81 8.067,2.851 2.796,1.038 5.34,2.416 7.633,4.135 2.293,1.723 4.193,3.855 5.698,6.398 1.505,2.546 2.257,5.719 2.257,9.517 0,4.372 -0.806,8.154 -2.418,11.346 -1.612,3.188 -3.78,5.822 -6.505,7.901 -2.725,2.079 -5.843,3.62 -9.356,4.622 -3.513,1.005 -7.132,1.508 -10.859,1.508 -5.446,0 -10.715,-0.95 -15.808,-2.851 -5.089,-1.901 -9.317,-4.606 -12.683,-8.115 l 12.041,-12.261 c 1.862,2.293 4.317,4.212 7.366,5.756 3.046,1.541 6.074,2.311 9.084,2.311 1.362,0 2.689,-0.144 3.98,-0.433 1.29,-0.286 2.419,-0.751 3.386,-1.396 0.966,-0.646 1.737,-1.505 2.311,-2.579 0.574,-1.077 0.861,-2.368 0.861,-3.873 0,-1.433 -0.358,-2.651 -1.075,-3.654 -0.717,-1.005 -1.739,-1.92 -3.065,-2.744 -1.327,-0.824 -2.975,-1.576 -4.944,-2.257 -1.972,-0.681 -4.213,-1.416 -6.723,-2.204 -2.436,-0.788 -4.819,-1.721 -7.147,-2.798 -2.333,-1.073 -4.412,-2.453 -6.238,-4.14 -1.829,-1.683 -3.298,-3.725 -4.408,-6.125 -1.112,-2.404 -1.669,-5.325 -1.669,-8.763 0,-4.229 0.862,-7.851 2.584,-10.864 1.719,-3.01 3.977,-5.482 6.772,-7.415 2.796,-1.936 5.951,-3.352 9.463,-4.247 3.513,-0.899 7.062,-1.348 10.646,-1.348 4.301,0 8.691,0.79 13.17,2.37 4.479,1.576 8.404,3.905 11.774,6.986 z m 71.388,56.34 v -31.829 h -29.678 v 31.829 h -18.386 v -76.127 h 18.386 v 28.817 h 29.678 v -28.817 h 18.386 v 76.127 z"
     style="fill:#ffffff;stroke-width:1.5625"
     id="path2"
     transform="matrix(0.64,0,0,0.64,216.3396,158.64904)" />
</svg>

<?xml version="1.0" encoding="utf-8"?>
<svg viewBox="0 0 1078.9 618.7" xmlns="http://www.w3.org/2000/svg">
  <path style="fill-opacity: 1; stroke: none; fill: rgb(255, 255, 255);" d="M 257.221 560.401 L 257.221 502.109 L 267.212 501.107 C 315.228 496.294 338.189 485.922 368.971 455.14 C 404.873 419.238 428.915 374.238 468.724 268.429 C 495.066 198.415 516.903 155.908 551.114 108.049 C 580.973 66.278 628.292 32.429 681.278 14.937 C 707.386 6.319 742.898 0 765.22 0 L 773.787 0 L 773.787 58.347 L 773.787 116.694 L 763.796 117.567 C 737.318 119.878 715.857 126.446 695.137 138.58 C 667.575 154.72 633.723 196.152 614.686 237.045 C 608.08 251.235 604.436 250.142 658.336 250.142 L 705.701 250.142 L 705.701 309.333 L 705.701 368.524 L 633.045 368.908 L 560.389 369.292 L 552.398 386.955 C 531.913 432.234 508.017 474.873 484.605 507.923 C 439.617 571.432 379.556 605.962 295.704 616.526 C 286.343 617.705 273.854 618.676 267.952 618.682 L 257.221 618.694 L 257.221 560.401 Z" id="path3820"/>
  <path d="M 60.799 347.309 L 54.904 332.403 L 25.518 332.403 L 19.943 347.309 L 0 347.309 L 31.846 271.385 L 49.649 271.385 L 81.174 347.309 L 60.799 347.309 Z M 40.425 291.653 L 30.773 317.71 L 49.862 317.71 L 40.425 291.653 Z M 158.37 309.131 C 158.37 315.782 157.137 321.519 154.672 326.342 C 152.204 331.169 148.952 335.138 144.914 338.25 C 140.874 341.359 136.316 343.646 131.241 345.111 C 126.165 346.576 121.017 347.309 115.796 347.309 L 87.487 347.309 L 87.487 271.385 L 114.942 271.385 C 120.302 271.385 125.591 272.011 130.809 273.263 C 136.03 274.515 140.677 276.588 144.749 279.483 C 148.825 282.379 152.115 286.257 154.619 291.119 C 157.12 295.978 158.37 301.982 158.37 309.131 Z M 139.281 309.131 C 139.281 304.842 138.584 301.285 137.189 298.461 C 135.795 295.637 133.937 293.385 131.614 291.706 C 129.292 290.027 126.647 288.831 123.681 288.116 C 120.714 287.401 117.657 287.043 114.51 287.043 L 105.397 287.043 L 105.397 331.437 L 114.083 331.437 C 117.369 331.437 120.533 331.062 123.574 330.311 C 126.611 329.561 129.292 328.328 131.614 326.614 C 133.937 324.896 135.795 322.608 137.189 319.748 C 138.584 316.888 139.281 313.349 139.281 309.131 Z M 249.627 309.024 C 249.627 315.031 248.591 320.519 246.517 325.488 C 244.443 330.457 241.566 334.711 237.885 338.25 C 234.203 341.786 229.825 344.519 224.75 346.45 C 219.674 348.381 214.168 349.347 208.232 349.347 C 202.299 349.347 196.813 348.381 191.773 346.45 C 186.733 344.519 182.373 341.786 178.691 338.25 C 175.01 334.711 172.133 330.457 170.059 325.488 C 167.986 320.519 166.949 315.031 166.949 309.024 C 166.949 302.949 167.986 297.463 170.059 292.565 C 172.133 287.668 175.01 283.503 178.691 280.071 C 182.373 276.638 186.733 273.994 191.773 272.137 C 196.813 270.277 202.299 269.347 208.232 269.347 C 214.168 269.347 219.674 270.277 224.75 272.137 C 229.825 273.994 234.203 276.638 237.885 280.071 C 241.566 283.503 244.443 287.668 246.517 292.565 C 248.591 297.463 249.627 302.949 249.627 309.024 Z M 230.005 309.024 C 230.005 305.738 229.468 302.665 228.394 299.805 C 227.323 296.945 225.84 294.496 223.944 292.458 C 222.048 290.421 219.761 288.811 217.083 287.63 C 214.401 286.453 211.451 285.864 208.232 285.864 C 205.017 285.864 202.086 286.453 199.44 287.63 C 196.797 288.811 194.51 290.421 192.579 292.458 C 190.647 294.496 189.164 296.945 188.129 299.805 C 187.091 302.665 186.572 305.738 186.572 309.024 C 186.572 312.457 187.109 315.62 188.182 318.515 C 189.253 321.411 190.736 323.895 192.632 325.969 C 194.528 328.042 196.797 329.669 199.44 330.85 C 202.086 332.028 205.017 332.616 208.232 332.616 C 211.451 332.616 214.383 332.028 217.03 330.85 C 219.672 329.669 221.959 328.042 223.891 325.969 C 225.822 323.895 227.323 321.411 228.394 318.515 C 229.468 315.62 230.005 312.457 230.005 309.024 Z M 320.927 325.216 C 320.927 329.364 320.106 332.849 318.462 335.673 C 316.816 338.497 314.635 340.767 311.921 342.481 C 309.204 344.199 306.112 345.433 302.644 346.183 C 299.176 346.934 295.619 347.309 291.974 347.309 L 261.734 347.309 L 261.734 271.385 L 291.974 271.385 C 294.904 271.385 297.906 271.689 300.979 272.297 C 304.056 272.905 306.844 273.942 309.345 275.407 C 311.849 276.873 313.887 278.856 315.459 281.356 C 317.031 283.86 317.817 287.042 317.817 290.901 C 317.817 295.119 316.673 298.605 314.386 301.358 C 312.099 304.111 309.097 306.095 305.38 307.311 L 305.38 307.525 C 307.525 307.881 309.544 308.542 311.436 309.51 C 313.332 310.474 314.977 311.706 316.371 313.207 C 317.765 314.708 318.873 316.46 319.695 318.462 C 320.516 320.464 320.927 322.716 320.927 325.216 Z M 300.125 293.371 C 300.125 290.796 299.142 288.918 297.175 287.737 C 295.208 286.56 292.295 285.971 288.436 285.971 L 279.425 285.971 L 279.425 301.625 L 289.295 301.625 C 292.724 301.625 295.386 300.927 297.282 299.533 C 299.178 298.139 300.125 296.085 300.125 293.371 Z M 302.59 323.504 C 302.59 320.356 301.411 318.176 299.053 316.963 C 296.692 315.746 293.546 315.138 289.615 315.138 L 279.425 315.138 L 279.425 332.51 L 289.722 332.51 C 291.152 332.51 292.635 332.385 294.172 332.136 C 295.708 331.884 297.102 331.437 298.354 330.797 C 299.606 330.153 300.625 329.241 301.411 328.06 C 302.197 326.879 302.59 325.36 302.59 323.504 Z M 333.053 347.309 L 333.053 271.385 L 384.095 271.385 L 384.095 286.937 L 350.745 286.937 L 350.745 301.198 L 382.27 301.198 L 382.27 315.89 L 350.745 315.89 L 350.745 331.651 L 386.026 331.651 L 386.026 347.309 L 333.053 347.309 Z" style="fill: rgb(255, 255, 255);"/>
  <path d="M 770.255 286.984 L 770.255 302.679 L 799.719 302.679 L 799.719 317.84 L 770.255 317.84 L 770.255 347.411 L 752.083 347.411 L 752.083 271.284 L 802.191 271.284 L 802.191 286.984 L 770.255 286.984 Z M 814.009 347.411 L 814.009 271.284 L 832.502 271.284 L 832.502 331.389 L 861.961 331.389 L 861.961 347.411 L 814.009 347.411 Z M 922.179 347.411 L 916.263 332.465 L 886.803 332.465 L 881.213 347.411 L 861.212 347.411 L 893.148 271.284 L 910.993 271.284 L 942.608 347.411 L 922.179 347.411 Z M 901.749 291.606 L 892.072 317.733 L 911.212 317.733 L 901.749 291.606 Z M 989.15 291.071 C 987.573 289.063 985.512 287.467 982.966 286.283 C 980.423 285.099 977.967 284.507 975.6 284.507 C 974.383 284.507 973.148 284.616 971.892 284.833 C 970.637 285.047 969.508 285.459 968.506 286.069 C 967.501 286.679 966.657 287.467 965.976 288.434 C 965.295 289.4 964.954 290.638 964.954 292.146 C 964.954 293.434 965.224 294.509 965.762 295.372 C 966.301 296.231 967.089 296.984 968.127 297.629 C 969.168 298.275 970.405 298.865 971.839 299.4 C 973.272 299.939 974.885 300.495 976.675 301.069 C 979.257 301.928 981.946 302.879 984.742 303.92 C 987.538 304.958 990.082 306.336 992.375 308.055 C 994.668 309.778 996.568 311.91 998.073 314.453 C 999.578 316.999 1000.33 320.172 1000.33 323.97 C 1000.33 328.342 999.524 332.124 997.912 335.316 C 996.3 338.504 994.132 341.138 991.407 343.217 C 988.682 345.296 985.564 346.837 982.051 347.839 C 978.538 348.844 974.919 349.347 971.192 349.347 C 965.746 349.347 960.477 348.397 955.384 346.496 C 950.295 344.595 946.067 341.89 942.701 338.381 L 954.742 326.12 C 956.604 328.413 959.059 330.332 962.108 331.876 C 965.154 333.417 968.182 334.187 971.192 334.187 C 972.554 334.187 973.881 334.043 975.172 333.754 C 976.462 333.468 977.591 333.003 978.558 332.358 C 979.524 331.712 980.295 330.853 980.869 329.779 C 981.443 328.702 981.73 327.411 981.73 325.906 C 981.73 324.473 981.372 323.255 980.655 322.252 C 979.938 321.247 978.916 320.332 977.59 319.508 C 976.263 318.684 974.615 317.932 972.646 317.251 C 970.674 316.57 968.433 315.835 965.923 315.047 C 963.487 314.259 961.104 313.326 958.776 312.249 C 956.443 311.176 954.364 309.796 952.538 308.109 C 950.709 306.426 949.24 304.384 948.13 301.984 C 947.018 299.58 946.461 296.659 946.461 293.221 C 946.461 288.992 947.323 285.37 949.045 282.357 C 950.764 279.347 953.022 276.875 955.817 274.942 C 958.613 273.006 961.768 271.59 965.28 270.695 C 968.793 269.796 972.342 269.347 975.926 269.347 C 980.227 269.347 984.617 270.137 989.096 271.717 C 993.575 273.293 997.5 275.622 1000.87 278.703 L 989.15 291.071 Z M 1060.538 347.411 L 1060.538 315.582 L 1030.86 315.582 L 1030.86 347.411 L 1012.474 347.411 L 1012.474 271.284 L 1030.86 271.284 L 1030.86 300.101 L 1060.538 300.101 L 1060.538 271.284 L 1078.924 271.284 L 1078.924 347.411 L 1060.538 347.411 Z" style="fill: rgb(255, 255, 255);"/>
</svg>
